dist/svg/user-managed-group.svg

<svg width="16" height="16" viewBox="0 0 16 16" fill="rgb(34, 34, 34)" xmlns="http://www.w3.org/2000/svg"><title>user-managed-group</title><path d="M7.50001 1.30002C8.06701 0.519023 8.97301 0.0130234 9.99801 2.34375e-05H10C10.016 2.34375e-05 10.035 -0.000976562 10.054 -0.000976562C11.681 -0.000976562 13 1.31802 13 2.94502C13 2.96402 13 2.98302 12.999 3.00202V2.99902C12.995 4.18102 12.31 5.20202 11.317 5.69102L11.299 5.69902V5.99902H10.599L10.299 7.49902C9.99401 7.59902 9.72901 7.73502 9.49001 7.90502L9.49901 7.89902L9.09901 7.59902C9.66001 6.92602 10 6.05302 10 5.10002C10 5.06502 10 5.02902 9.99901 4.99402V4.99902C9.99901 4.98602 9.99901 4.97102 9.99901 4.95602C9.99901 3.30102 8.97501 1.88502 7.52501 1.30902L7.49801 1.30002H7.50001ZM12.7 7.50002C13 7.60002 13.2 7.70002 13.5 7.80002L14 7.50002C13.61 7.12002 13.144 6.81502 12.628 6.61002L12.6 6.60002L12.7 7.50002ZM6.00001 12.4V10.6L7.50001 10.3C7.60001 9.99502 7.73601 9.73002 7.90601 9.49102L7.90001 9.50002L7.00001 8.30002L7.30001 8.00002V7.70002C8.31101 7.20302 8.99601 6.18202 9.00001 5.00102C9.00001 4.98502 9.00101 4.96502 9.00101 4.94602C9.00101 3.31902 7.68201 2.00002 6.05501 2.00002C6.03601 2.00002 6.01701 2.00002 5.99801 2.00102H6.00101C5.98501 2.00102 5.96601 2.00102 5.94701 2.00102C4.32001 2.00102 3.00101 3.32002 3.00101 4.94702C3.00101 4.96602 3.00101 4.98502 3.00201 5.00402V5.00102C3.00601 6.18302 3.69101 7.20402 4.68401 7.69302L4.70201 7.70102V8.20102C3.48101 8.53602 2.43501 9.16202 1.60201 10.001C0.602007 11.001 -1.49799 14.001 2.00201 14.001H7.60201L8.00201 13.501C7.90201 13.287 7.80101 13.022 7.71501 12.75L7.70201 12.701L6.00001 12.4ZM14.7 12.2C14.634 12.625 14.456 12.999 14.197 13.303L14.2 13.3L14.9 14.4L14.3 15L13.2 14.3C12.884 14.514 12.518 14.686 12.126 14.794L12.1 14.8L11.9 16H11.1L10.9 14.7C10.475 14.634 10.101 14.456 9.79701 14.197L9.80001 14.2L8.70001 14.9L8.10001 14.3L8.80001 13.2C8.58601 12.884 8.41401 12.518 8.30601 12.126L8.30001 12.1L7.00001 11.9V11.1L8.30001 10.9C8.36601 10.475 8.54401 10.101 8.80301 9.79702L8.80001 9.80002L8.10001 8.60002L8.70001 8.00002L9.80001 8.70002C10.116 8.48602 10.482 8.31402 10.874 8.20602L10.9 8.20002L11.1 7.00002H11.9L12.1 8.30002C12.525 8.36602 12.899 8.54402 13.203 8.80302L13.2 8.80002L14.3 8.10002L14.9 8.70002L14.2 9.80002C14.414 10.116 14.586 10.482 14.694 10.874L14.7 10.9L16 11.1V11.9L14.7 12.2ZM13.1 11.5C13.1 10.616 12.384 9.90002 11.5 9.90002C10.616 9.90002 9.90001 10.616 9.90001 11.5C9.90001 12.384 10.616 13.1 11.5 13.1C11.506 13.1 11.513 13.1 11.521 13.1C12.393 13.1 13.101 12.393 13.101 11.52C13.101 11.513 13.101 11.506 13.101 11.498L13.1 11.5Z" fill="rgb(34, 34, 34)" fill-opacity="1.00"/></svg>

<!-- Generated by Trend Micro Style Portal -->
<svg version="1.1" xmlns="http://www.w3.org/2000/svg" width="16" height="16" viewBox="0 0 16 16">
  <title>user-managed-group</title>
  <path fill="rgb(34,34,34)" d="M7.5 1.3c0.567-0.781 1.473-1.287 2.498-1.3l0.002-0c0.016-0 0.035-0.001 0.054-0.001 1.627 0 2.946 1.319 2.946 2.946 0 0.019-0 0.038-0.001 0.057l0-0.003c-0.004 1.182-0.689 2.203-1.682 2.692l-0.018 0.008v0.3h-0.7l-0.3 1.5c-0.305 0.1-0.57 0.236-0.809 0.406l0.009-0.006-0.4-0.3c0.561-0.673 0.901-1.546 0.901-2.499 0-0.035-0-0.071-0.001-0.106l0 0.005c0-0.013 0-0.028 0-0.043 0-1.655-1.024-3.071-2.474-3.647l-0.027-0.009zM12.7 7.5c0.3 0.1 0.5 0.2 0.8 0.3l0.5-0.3c-0.39-0.38-0.856-0.685-1.372-0.89l-0.028-0.010zM6 12.4v-1.8l1.5-0.3c0.1-0.305 0.236-0.57 0.406-0.809l-0.006 0.009-0.9-1.2 0.3-0.3v-0.3c1.011-0.497 1.696-1.518 1.7-2.699v-0.001c0-0.016 0.001-0.035 0.001-0.054 0-1.627-1.319-2.946-2.946-2.946-0.019 0-0.038 0-0.057 0.001l0.003-0c-0.016-0-0.035-0-0.054-0-1.627 0-2.946 1.319-2.946 2.946 0 0.019 0 0.038 0.001 0.057l-0-0.003c0.004 1.182 0.689 2.203 1.682 2.692l0.018 0.008v0.5c-1.221 0.335-2.267 0.961-3.1 1.8l-0 0c-1 1-3.1 4 0.4 4h5.6l0.4-0.5c-0.1-0.214-0.201-0.479-0.287-0.751l-0.013-0.049zM14.7 12.2c-0.066 0.425-0.244 0.799-0.503 1.103l0.003-0.003 0.7 1.1-0.6 0.6-1.1-0.7c-0.316 0.214-0.682 0.386-1.074 0.494l-0.026 0.006-0.2 1.2h-0.8l-0.2-1.3c-0.425-0.066-0.799-0.244-1.103-0.503l0.003 0.003-1.1 0.7-0.6-0.6 0.7-1.1c-0.214-0.316-0.386-0.682-0.494-1.074l-0.006-0.026-1.3-0.2v-0.8l1.3-0.2c0.066-0.425 0.244-0.799 0.503-1.103l-0.003 0.003-0.7-1.2 0.6-0.6 1.1 0.7c0.316-0.214 0.682-0.386 1.074-0.494l0.026-0.006 0.2-1.2h0.8l0.2 1.3c0.425 0.066 0.799 0.244 1.103 0.503l-0.003-0.003 1.1-0.7 0.6 0.6-0.7 1.1c0.214 0.316 0.386 0.682 0.494 1.074l0.006 0.026 1.3 0.2v0.8zM13.1 11.5c0-0.884-0.716-1.6-1.6-1.6s-1.6 0.716-1.6 1.6c0 0.884 0.716 1.6 1.6 1.6v0c0.006 0 0.013 0 0.021 0 0.872 0 1.58-0.707 1.58-1.58 0-0.007-0-0.014-0-0.022l0 0.001z"></path>
</svg>
